src/images/arqliteIcons/FactoryIcon.svg

<svg width="44" height="40" viewBox="0 0 44 40" fill="none" xmlns="http://www.w3.org/2000/svg">
<path d="M0 18H44V38C44 39.1046 43.1046 40 42 40H2C0.895431 40 0 39.1046 0 38V18Z" fill="#0091A6"/>
<rect x="36" width="8" height="18" fill="#0091A6"/>
<path d="M20.7249 12.0597L36 18H18V13.9237C18 12.517 19.4138 11.5498 20.7249 12.0597Z" fill="#0091A6"/>
<path d="M2.72489 12.0597L18 18H0V13.9237C0 12.517 1.41382 11.5498 2.72489 12.0597Z" fill="#0091A6"/>
<rect x="36" y="2" width="8" height="2" fill="white"/>
<rect x="36" y="6" width="8" height="2" fill="white"/>
</svg>

<svg xmlns="http://www.w3.org/2000/svg" width="44" height="40" fill="none" xmlns:v="https://vecta.io/nano"><g fill="#0091a6"><path d="M0 18h44v20a2 2 0 0 1-2 2H2a2 2 0 0 1-2-2V18z"/><path d="M36 0h8v18h-8z"/><path d="M20.725 12.06L36 18H18v-4.076a2 2 0 0 1 2.725-1.864z"/><path d="M2.725 12.06L18 18H0v-4.076a2 2 0 0 1 2.725-1.864z"/></g><path d="M36 2h8v2h-8zm0 4h8v2h-8z" fill="#fff"/></svg>
